assets/svg/icon_profile_camera.svg

<svg width="36" height="36" viewBox="0 0 36 36" fill="none" xmlns="http://www.w3.org/2000/svg">
<circle cx="18" cy="18" r="18" fill="#0166FF"/>
<path d="M10.5 16.5C10.4988 15.8487 10.7097 15.2146 11.1007 14.6937C11.4918 14.1728 12.0417 13.7933 12.6675 13.6125C13.2869 13.4313 13.8313 13.0552 14.22 12.54L14.85 11.7C15.1295 11.3274 15.4918 11.025 15.9084 10.8167C16.325 10.6084 16.7843 10.5 17.25 10.5H18.75C19.2158 10.5 19.6751 10.6084 20.0917 10.8167C20.5083 11.025 20.8706 11.3274 21.15 11.7L21.7875 12.54C22.1731 13.0584 22.7187 13.4353 23.34 13.6125C23.9644 13.7946 24.5127 14.1747 24.9023 14.6955C25.2919 15.2163 25.5017 15.8496 25.5 16.5L24.9975 22.5C24.917 23.3108 24.542 24.0639 23.9435 24.6168C23.345 25.1696 22.5646 25.4838 21.75 25.5H14.25C13.4354 25.4838 12.655 25.1696 12.0566 24.6168C11.4581 24.0639 11.0831 23.3108 11.0025 22.5L10.5 16.5Z" stroke="white" stroke-width="1.125" stroke-linecap="round" stroke-linejoin="round"/>
<path d="M18 22.6875C20.0711 22.6875 21.75 21.0086 21.75 18.9375C21.75 16.8665 20.0711 15.1875 18 15.1875C15.9289 15.1875 14.25 16.8665 14.25 18.9375C14.25 21.0086 15.9289 22.6875 18 22.6875Z" stroke="white" stroke-width="1.125" stroke-linecap="round" stroke-linejoin="round"/>
</svg>

<svg xmlns="http://www.w3.org/2000/svg" width="36" height="36" fill="none" viewBox="0 0 36 36">
  <circle cx="18" cy="18" r="18" fill="#0166FF"/>
  <path stroke="#fff" stroke-linecap="round" stroke-linejoin="round" stroke-width="1.125" d="M10.5 16.5a3 3 0 0 1 2.168-2.887 3 3 0 0 0 1.552-1.073l.63-.84a3 3 0 0 1 2.4-1.2h1.5a3 3 0 0 1 2.4 1.2l.638.84a2.94 2.94 0 0 0 1.552 1.073A3 3 0 0 1 25.5 16.5l-.503 6a3.33 3.33 0 0 1-3.247 3h-7.5a3.33 3.33 0 0 1-3.248-3l-.502-6Z"/>
  <path stroke="#fff" stroke-linecap="round" stroke-linejoin="round" stroke-width="1.125" d="M18 22.688a3.75 3.75 0 1 0 0-7.5 3.75 3.75 0 0 0 0 7.5Z"/>
</svg>
